**kern	**text
*clefG2	*
*k[b-e-a-]	*
*M4/4	*
*MM155	*
=1	=1
4r	.
2d-X	あ
8e-L	ぐ
8d-J	び
=2	=2
8e-L	つ
8d-XJ	る
8g-XL	ま
16g-L	え
[16e-JJ	に
8e-L]	.
[8d-J	あ
16d-LL]	.
16d-J	ん
8d-J	ぷ
=3	=3
16.d-XLL	お
32d-JK	つ
[8g-XJ	な
16g-LL]	.
16g-J	い
8e-J	で
8r	.
8d-L	す
8e-	と
8d-J	ら
=4	=4
8e-L	と
8d-XJ	せ
8.g-XL	お
[16e-Jk	て
16e-]	.
32r	.
32e-KKL	く
[8e-J	ら
16e-LL]	.
16e-J	ぷ
[8d-J	と
=5	=5
16d-LL]	.
16d-XJJ	ん
4d-	ひ
[8B-	て
8B-]	.
8r	.
8e-L	て
8d-J	れ
=6	=6
8e-L	か
8d-XJ	す
8.g-X'L	も
[16e-Jk	た
8e-L]	.
[8d-J	が
16.d-LL]	.
32d-K	く
16d-	せ
16d-'JJ	い
=7	=7
16.d-XLL	お
32d-JK	し
[8g-XJ	ば
16g-LL]	.
16g-J	い
8e-J	て
8r	.
8b-	さ
4a-	あ
=8	=8
16r	.
32r	.
32a-	と
4a-	り
8g-X	ぷ
8g-	し
4b-	よ
[8dd-X	あ
=9	=9
32dd-KLL]	.
16.dd-XJ	い
8b-J	す
8b-L	べ
8a-J	き
8g-XL	せ
8e-	か
8g-	い
[8e-J	え
=10	=10
1e-_	.
=11	=11
2.e-]	.
4r	.
=12	=12
1r	.
=13	=13
1r	.
=14	=14
1r	.
=15	=15
1r	.
=16	=16
1r	.
=17	=17
2r	.
4d-X	は
8e-L	な
8d-J	ん
=18	=18
8e-L	て
8d-XJ	じ
8g-XL	だ
16g-L	い
16e-JJ	に
8e-	う
4e-	ま
8d-	れ
=19	=19
8d-XL	た
[8g-XJ	も
32g-KLL]	.
16.g-J	ん
8e-J	だ
8r	.
8d-L	ど
8e-	ら
8d-J	え
=20	=20
16.e-LL	も
32e-K	ん
16d-X	わ
16d-JJ	い
8g-XL	な
16g-L	い
[16e-JJ	し
16e-]	.
16r	.
8e-	ぽ
8r	.
8d-	け
=21	=21
8d-XL	わ
[8d-J	な
32d-KLL]	.
16.d-J	い
[8B-J	し
8B-]	.
8r	.
8e-L	ば
8d-J	か
=22	=22
8e-L	わ
8d-XJ	し
8g-XL	な
16g-L	ん
[16e-JJ	と
8e-]	.
4e-	た
8d-	お
=23	=23
16.d-XLL	りゃ
32d-JK	し
[8g-XJ	な
16g-LL]	.
16g-J	い
8e-J	し
8r	.
8b-	も
4a-	お
=24	=24
8r	.
8a-L	ど
8g-X	お
8g-J	に
8g-L	で
8b-J	も
8r	.
8dd-X	な
=25	=25
2.b-	れ
4r	.
=26	=26
8r	.
[8an	て
32aKLL]	.
16.a	ん
16.a-X	ご
32a-JJk	く
8g-XL	が
8e-	よ
8d-X	ん
8d-J	で
=27	=27
8e-L	い
8g-XJ	る
8r	.
8B-	ち
8d-XL	と
8B-J	り
8.e-L	あ
16e-Jk	し
=28	=28
8d-XL	で
8B-J	ざ
8d-L	わ
16d-L	つ
[16dnJJ	く
16d]	.
16r	.
4e-	ぱ
8e-	てぃ
=29	=29
8d-XL	ぴ
16B-L	ぽ
16B-JJ	わ
8.d-L	ふぁ
16d-Jk	く
4e-	お
4e-'	ふ
=30	=30
8r	.
[8an	ど
16aLL]	.
16aJ	し
8a-XJ	て
8g-XL	し
8e-J	ぶ
8r	.
8d-X	て
=31	=31
8e-L	い
8g-XJ	る
8r	.
8e-	は
8g-L	や
8e-J	く
16a-LL	お
16a-J	ん
8g-J	りょ
=32	=32
8a-L	お
8g-X	あ
8a-	げ
8g-J	て
8a-	く
4.b-	れ
=33	=33
4r	.
8r	.
16ccLL	え
16ccJJ	び
8ee-L	ば
8ccJ	り
8.aa-L	げ
16aa-Jk	ん
=34	=34
8.aa-L	じ
16aa-Jk	つ
8aa-L	と
8aa-J	ひ
8ffL	に
8ee-	す
8cc	が
8ee-J	れ
=35	=35
8r	.
8ee-L	す
8cc	が
8ee-J	れ
8r	.
8cc	ま
8.aa-L	け
16aa-Jk	い
=36	=36
8aa-L	ぬ
8aa-J	に
4aa-	な
8ffL	て
8ee-	ほ
8ff	え
8ee-J	ろ
=37	=37
8r	.
8ccL	ほ
8ff	え
8ee-J	ろ
8r	.
8cc	り
4aa-	そ
=38	=38
4aa-	ぞ
[8aa-L	な
32aa-KL]	.
16.aa-JJ	ん
8ffL	て
8ee-	す
8cc	て
8ee-J	ろ
=39	=39
8r	.
8ee-L	す
8cc	て
8ee-J	ろ
8r	.
8ccL	そ
8b-	れ
8a-J	が
=40	=40
8r	.
8a-	だ
8r	.
8b-	ぽ
8r	.
[8cc	ろ
16ccLL]	.
16ccJ	く
8b-J	の
=41	=41
16.ccLL	れ
32ccJK	い
8aa-J	ほ
16ggLL	な
16gg	ん
16ee-	で
16ee-JJ	す
4ee-'	わ
8.aa-L	さ
16aa-Jk	い
=42	=42
8.aa-L	て
16aa-Jk	い
[8aa-L	へ
32aa-KL]	.
16.aa-JJ	ん
8ffL	に
8ee-	し
8cc	ず
8ee-J	め
=43	=43
8r	.
8ee-L	し
8cc	ず
8ee-J	め
8r	.
8cc	しゃ
[8aa-L	か
32aa-LL]	.
32aa-J	い
16aa-JJ	ふ
=44	=44
8.aa-L	て
16aa-Jk	き
4aa-	ご
16ffLL	しゃ
16ffJ	に
8ee-J	お
8ffL	ち
8ee-J	ろ
=45	=45
8r	.
8ccL	お
8ff	ち
8ee-J	ろ
8r	.
8cc	じ
[8.aa-L	さ
32aa-LL]	.
32aa-JJJ	つ
=46	=46
[8aa-L	て
32aa-KL]	.
16.aa-JJ	ん
4aa-'	ば
8ffL	か
8ee-	き
8cc	め
8ee-J	ろ
=47	=47
8r	.
8ee-L	き
8cc	め
8ee-J	ろ
8r	.
8ccL	そ
8b-	れ
8a-J	が
=48	=48
8r	.
8a-	だ
8r	.
8b-	ぽ
8r	.
[8cc	ろ
16ccLL]	.
16ccJ	く
8b-J	の
=49	=49
16.ccLL	れ
32ccJK	い
8aa-J	ほ
16ggLL	な
16gg	ん
16ee-	で
16ee-JJ	す
4ee-'	わ
8ffL	ね
16ffL	ん
[16b-JJ	じゅ
=50	=50
16b-LL]	.
16b-J	い
[8ee-J	き
16ee-KL]	.
8a-	て
16a-Jk	い
[2dd-X	こ
=51	=51
4dd-]	.
4r	.
2r	.
=52	=52
1r	.
=53	=53
1r	.
=54	=54
1r	.
=55	=55
1r	.
=56	=56
1r	.
=57	=57
1r	.
=58	=58
1r	.
=59	=59
4r	.
8r	.
8d-X'	うぇ
16d-LL	か
16d-	む
16d-	とぅ
16d-JJ	ざ
8g-XL	ふぁ
16g-L	き
16g-JJ	ん
=60	=60
8g-XL	さ
16.g-L	か
32g-JJk	ず
8d-XL	の
16.d-L	な
32d-JJk	い
8d-L	わ
8d-	ぱ
8e-	り
8d-J	ら
=61	=61
8r	.
8d-XL	ぱ
8e-	り
8d-J	ら
8r	.
8d-	ぐ
8g-XL	も
16g-L	に
16g-JJ	ん
=62	=62
16.g-XLL	み
32g-K	す
16.g-	た
32g-JJk	く
16.g-LL	れ
32g-JK	い
8d-XJ	じ
8d-L	き
8b-	ぶ
8b-	ん
[8g-J	わ
=63	=63
8g-]	.
4e-	ど
[8d-X	だ
16.d-LL]	.
[32d-K	い
16d-JJ]	.
16r	.
4r	.
=64	=64
1r	.
=65	=65
2r	.
8r	.
8b-	た
4a-	だ
=66	=66
8r	.
8a-L	ほ
8g-X	ん
8g-J	ば
8a-L	ん
8b-J	わ
8r	.
[8dd-X	こ
=67	=67
8dd-L]	.
8dd-X	こ
8a-	か
8a-J	ら
8.g-XL	で
16g-'Jk	す
4r	.
=68	=68
8r	.
[8an	の
32aLLL]	.
32aJ	い
16aJ	ず
8a-XJ	が
8g-XL	ま
8e-J	じ
8r	.
8d-X	て
=69	=69
8e-L	い
8g-XJ	る
8r	.
8B-	お
8d-XL	つ
8B-J	む
4e-'	は
=70	=70
8d-XL	ぴ
16.B-L	で
32B-JJk	く
8.d-'L	る
[16dnJk	た
16d]	.
16r	.
4e-	き
8e-	つ
=71	=71
8d-XL	ね
8B-J	わ
8.d-L	き
16d-Jk	く
8.e-L	あ
32e-LL	う
32e-JJJ	と
4r	.
=72	=72
8r	.
[8an	そ
32aKLL]	.
16.aJ	ん
8a-XJ	な
8g-XL	の
8e-	ど
8d-X	お
8d-J	で
=73	=73
8e-L	も
8g-XJ	い
8r	.
8e-	さ
8g-L	ら
8e-J	に
16a-LL	お
16a-J	ん
8g-J	りょ
=74	=74
8a-L	お
8g-X	あ
8a-	げ
8g-J	て
8a-	く
4.b-	れ
=75	=75
4r	.
8r	.
16ccLL	え
16ccJJ	び
8ee-L	ば
8ccJ	り
8.aa-L	げ
16aa-Jk	ん
=76	=76
8.aa-L	じ
16aa-Jk	つ
8aa-L	と
8aa-J	ひ
8ffL	に
8ee-	す
8cc	が
8ee-J	れ
=77	=77
8r	.
8ee-L	す
8cc	が
8ee-J	れ
8r	.
8cc	ま
8.aa-L	け
16aa-Jk	い
=78	=78
8aa-L	ぬ
8aa-J	に
4aa-	な
8ffL	て
8ee-	ほ
8ff	え
8ee-J	ろ
=79	=79
8r	.
8ccL	ほ
8ff	え
8ee-J	ろ
8r	.
8cc	り
4aa-	そ
=80	=80
4aa-	ぞ
[8aa-L	な
32aa-KL]	.
16.aa-JJ	ん
8ffL	て
8ee-	す
8cc	て
8ee-J	ろ
=81	=81
8r	.
8ee-L	す
8cc	て
8ee-J	ろ
8r	.
8ccL	そ
8b-	れ
8a-J	が
=82	=82
8r	.
8a-	だ
8r	.
8b-	ぽ
8r	.
[8cc	ろ
16ccLL]	.
16ccJ	く
8b-J	の
=83	=83
16.ccLL	れ
32ccJK	い
8aa-J	ほ
16ggLL	な
16gg	ん
16ee-	で
16ee-JJ	す
4ee-'	わ
8.aa-L	さ
16aa-Jk	い
=84	=84
8.aa-L	て
16aa-Jk	い
[8aa-L	へ
32aa-KL]	.
16.aa-JJ	ん
8ffL	に
8ee-	し
8cc	ず
8ee-J	め
=85	=85
8r	.
8ee-L	し
8cc	ず
8ee-J	め
8r	.
8cc	しゃ
[8aa-L	か
32aa-LL]	.
32aa-J	い
16aa-JJ	ふ
=86	=86
8.aa-L	て
16aa-Jk	き
4aa-	ご
16ffLL	しゃ
16ffJ	に
8ee-J	お
8ffL	ち
8ee-J	ろ
=87	=87
8r	.
8ccL	お
8ff	ち
8ee-J	ろ
8r	.
8cc	じ
[8.aa-L	さ
32aa-LL]	.
32aa-JJJ	つ
=88	=88
[8aa-L	て
32aa-KL]	.
16.aa-JJ	ん
4aa-'	ば
8ffL	か
8ee-	き
8cc	め
8ee-J	ろ
=89	=89
8r	.
8ee-L	き
8cc	め
8ee-J	ろ
8r	.
8ccL	そ
8b-	れ
8a-J	が
=90	=90
8r	.
8a-	だ
8r	.
8b-	ぽ
8r	.
[8cc	ろ
16ccLL]	.
16ccJ	く
8b-J	の
=91	=91
16.ccLL	れ
32ccJK	い
8aa-J	ほ
16ggLL	な
16gg	ん
16ee-	で
16ee-JJ	す
4ee-'	わ
8.aa-L	あ
16aa-Jk	い
=92	=92
4aa-	そ
[8aa-L	な
32aa-KL]	.
16.aa-JJ	ん
8ffL	て
8ee-J	い
8ccL	ら
16.ee-L	な
32ee-JJk	い
=93	=93
8r	.
8ee-	い
8ccL	ら
16.ee-L	な
32ee-JJk	い
8r	.
8cc	か
8.aa-L	が
16aa-Jk	く
=94	=94
8.aa-L	は
16aa-Jk	ん
4aa-	の
8ffL	お
8ee-	お
8ff	こ
8ee-J	せ
=95	=95
8r	.
8ccL	お
8ff	こ
8ee-J	せ
8r	.
8cc	ぷ
10.aa-L	ら
20.aa-L	い
40aa-JJk	ど
=96	=96
4aa-	わ
8.aa-L	ぽ
16aa-Jk	い
8ffL	と
8ee-	す
8cc	て
8ee-J	ろ
=97	=97
8r	.
8ee-L	す
8cc	て
8ee-J	ろ
8r	.
8ccL	そ
8b-	れ
8a-J	が
=98	=98
8r	.
8a-	だ
8r	.
8b-	ぽ
8r	.
[8cc	ろ
16ccLL]	.
16ccJ	く
8b-J	の
=99	=99
16.ccLL	れ
32ccJK	い
8aa-J	ほ
16ggLL	な
16gg	ん
16ee-	で
16ee-JJ	す
4ee-'	わ
8.aa-L	て
16aa-Jk	い
=100	=100
8.aa-L	さ
16aa-Jk	い
[8aa-L	な
32aa-KL]	.
16.aa-JJ	ん
8ffL	て
8ee-J	し
8ccL	ら
16.ee-L	な
32ee-JJk	い
=101	=101
8r	.
8ee-	し
8ccL	ら
16.ee-L	な
32ee-JJk	い
8r	.
8cc	ぼ
4aa-	りゅ
=102	=102
8.aa-L	む
16aa-Jk	ひ
8.aa-L	と
16aa-Jk	つ
8ffL	も
8ee-J	さ
8ffL	げ
16.ee-L	な
32ee-JJk	い
=103	=103
8r	.
8cc	さ
8ffL	げ
16.ee-L	な
32ee-JJk	い
8r	.
8cc	の
8.aa-L	べ
16aa-Jk	つ
=104	=104
8.aa-L	ま
16aa-Jk	く
8.aa-L	な
16aa-Jk	し
8ffL	に
8ee-	き
8cc	め
8ee-J	ろ
=105	=105
8r	.
8ee-L	き
8cc	め
8ee-J	ろ
8r	.
8ccL	そ
8b-	れ
8a-J	が
=106	=106
8r	.
8a-	だ
8r	.
8b-	ぽ
8r	.
[8cc	ろ
16ccLL]	.
16ccJ	く
8b-J	の
=107	=107
16.ccLL	れ
32ccJK	い
8aa-J	ほ
16ggLL	な
16gg	ん
16ee-	で
16ee-JJ	す
4ee-'	わ
8ffL	ね
16ffL	ん
[16b-JJ	じゅ
=108	=108
16b-LL]	.
16b-J	い
[8ee-J	き
16ee-KL]	.
8a-	て
16a-Jk	い
[2dd-X	こ
=109	=109
4dd-]	.
4r	.
2r	.
==	==
*-	*-
